icon-svg/bulb-foh.svg

<?xml version="1.0" encoding="UTF-8"?>
<svg width="32px" height="32px" viewBox="0 0 32 32" version="1.1" fill="#44739e" xmlns="http://www.w3.org/2000/svg" xmlns:xlink="http://www.w3.org/1999/xlink">
            <path d="M16,2 C22.627,2 28,2.895 28,4 L28,28 C28,29.104 22.627,30 16,30 C9.373,30 4,29.104 4,28 L4,4 C4,2.895 9.373,2 16,2 Z M25.6,26.366 L25.6,10 L6,10 L6,26.366 C6,27.268 10.588,28 16,28 C21.413,28 25.6,27.268 25.6,26.366 Z M10.4916,20.3395 C12.1086,20.8345 14.4676,20.9975 16.0006,20.9975 C17.5336,20.9975 19.8916,20.8345 21.5096,20.3395 C20.8506,22.0155 19.7096,22.7565 19.4376,24.3185 C19.3196,24.9985 19.2196,25.3085 19.2856,26.0035 C19.3276,26.4465 18.9796,26.8355 18.5236,26.8805 C17.7826,26.9545 16.9406,26.9995 16.0006,26.9995 C15.0596,26.9995 14.2186,26.9545 13.4766,26.8805 C13.0206,26.8355 12.6736,26.4465 12.7156,26.0035 C12.7816,25.3085 12.6806,24.9985 12.5626,24.3185 C12.2916,22.7565 11.1496,22.0155 10.4916,20.3395 Z M10.182,18.652 C10.137,18.456 10.1,18.277 10.073,18.065 C10.047,17.848 10,17.637 10,17.397 C10,14.766 12.698,12 16,12 C19.303,12 22,14.766 22,17.397 C22,17.637 21.953,17.848 21.928,18.065 C21.901,18.277 21.864,18.456 21.819,18.652 C20.884,19.034 18.901,19.473 16,19.473 C13.1,19.473 11.117,19.034 10.182,18.652 Z"></path>
</svg>

<svg xmlns="http://www.w3.org/2000/svg" fill="#44739e" viewBox="0 0 24 24"><path d="M16 2c6.627 0 12 .895 12 2v24c0 1.104-5.373 2-12 2s-12-.896-12-2V4c0-1.105 5.373-2 12-2m9.6 24.366V10H6v16.366C6 27.268 10.588 28 16 28c5.413 0 9.6-.732 9.6-1.634m-15.1084-6.0265c1.617.495 3.976.658 5.509.658s3.891-.163 5.509-.658c-.659 1.676-1.8 2.417-2.072 3.979-.118.68-.218.99-.152 1.685.042.443-.306.832-.762.877-.741.074-1.583.119-2.523.119-.941 0-1.782-.045-2.524-.119-.456-.045-.803-.434-.761-.877.066-.695-.035-1.005-.153-1.685-.271-1.562-1.413-2.303-2.071-3.979m-.3096-1.6875c-.045-.196-.082-.375-.109-.587-.026-.217-.073-.428-.073-.668C10 14.766 12.698 12 16 12c3.303 0 6 2.766 6 5.397 0 .24-.047.451-.072.668-.027.212-.064.391-.109.587-.935.382-2.918.821-5.819.821-2.9 0-4.883-.439-5.818-.821"/></svg>
